X: 23022
T: Last Night's Fun
R: slip jig
M: 9/8
K: Dmixolydian
D2A A2G ABc|D2AA2 G EGE|D2A A2G ABc|dcB cBA G2E|
D2A A2G ABc|D2A AGF G2E|D2A A2G ABc|dcB cBA G2 E||
BAB dBG ABc|B2c dBG c2 A|BAB dBG ABc|BAG AGE G2E|
BAB dBG ABc|B2c dBG c2A|def gfe dBA|BAG AGE G2E||

